icons/fresh-light.svg

<svg width="256" height="256" viewBox="0 0 256 256" fill="none" xmlns="http://www.w3.org/2000/svg">
<rect width="256" height="256" rx="60" fill="#F4F2ED"/>
<path d="M204.244 68.5419C230.243 132.005 204.244 166.125 182.25 184.938C187.625 203.75 166.2 207.631 158.062 198.375C134.106 206.636 85.4355 206.368 50.5625 171.5C31.75 152.688 46.4237 110.838 96.25 82.8125C139.25 58.625 182.25 45.1875 204.244 68.5419Z" fill="#FFDB1E"/>
<path d="M96.25 82.8125C133.058 58.6411 177.009 48.52 194.978 64.1612C222.562 88.1875 136.562 142.539 104.312 155.375C69.375 169.28 88.1875 201.062 69.375 201.062C53.25 201.062 55.9375 179.562 41.5164 159.406C32.997 147.501 54.11 110.483 96.25 82.8125Z" fill="white" stroke="#FFDB1E"/>
<path d="M174.376 68.1495C199.342 74.8683 172.414 98.7601 151.247 114.031C131.187 128.5 115.74 136.659 108.661 139.992C106.694 140.922 99.9695 127.887 99.9695 134.617C99.9695 136.858 96.207 146.646 94.9492 147.119C87.6124 149.871 72.2506 154.053 63.5861 154.053C44.822 154.053 53.25 128.5 79.7864 105.022C84.5809 100.781 87.7306 101.555 92.0575 101.555C89.1711 97.4003 89.1872 96.6263 94.2236 93.2454C116.621 78.19 144.625 68.1388 156.514 66.2575C158.482 66.3328 160.922 68.1388 160.922 69.6384C163.126 68.8859 172.183 67.5529 174.376 68.1441V68.1495Z" fill="#FFE600"/>
<path d="M97.8464 109.634C103.141 105.619 106.683 104.205 109.129 96.0565C112.171 96.7069 113.649 95.6265 116.062 92.2886C117.804 94.7934 124.969 95.5566 129.247 96.0565C125.404 98.4806 123.566 100.636 121.443 107.376C113.574 104.092 104.42 105.753 97.8464 109.634Z" fill="white"/>
</svg>

<svg xmlns="http://www.w3.org/2000/svg" width="256" height="256" fill="none"><rect width="256" height="256" fill="#F4F2ED" rx="60"/><path fill="#FFDB1E" d="M204.244 68.542c25.999 63.463 0 97.583-21.994 116.396 5.375 18.812-16.05 22.693-24.188 13.437-23.956 8.261-72.626 7.993-107.5-26.875-18.812-18.812-4.138-60.662 45.688-88.687 43-24.188 86-37.625 107.994-14.271"/><path fill="#fff" stroke="#FFDB1E" d="M96.25 82.813c36.808-24.172 80.759-34.293 98.728-18.652 27.584 24.027-58.416 78.378-90.666 91.214-34.937 13.905-16.124 45.687-34.937 45.687-16.125 0-13.437-21.5-27.859-41.656-8.519-11.905 12.594-48.923 54.734-76.593Z"/><path fill="#FFE600" d="M174.376 68.15c24.966 6.718-1.962 30.61-23.129 45.881-20.06 14.469-35.507 22.628-42.586 25.961-1.967.93-8.692-12.105-8.692-5.375 0 2.241-3.762 12.029-5.02 12.502-7.337 2.752-22.698 6.934-31.363 6.934-18.764 0-10.336-25.553 16.2-49.031 4.795-4.241 7.945-3.467 12.272-3.467-2.887-4.155-2.87-4.929 2.166-8.31 22.397-15.055 50.401-25.106 62.29-26.988 1.968.076 4.408 1.882 4.408 3.381 2.204-.752 11.261-2.085 13.454-1.494z"/><path fill="#fff" d="M97.846 109.634c5.295-4.015 8.837-5.429 11.283-13.577 3.042.65 4.52-.43 6.933-3.768 1.742 2.504 8.907 3.268 13.185 3.767-3.843 2.425-5.681 4.58-7.804 11.32-7.869-3.284-17.023-1.623-23.597 2.258"/></svg>
